X:1
T:Well may my true love arrive
L:1/8
Q:1/8=128
M:4/4
I:linebreak $
K:Eb
V:1 treble 
V:1
|: B, | E>G BB, C>E E>d | e>c BB, DF F>G | E>G BB, CE Ac | B<G F>G E3 B, |$ E>G BB, C>E E>d | %6
 e>c BB, DF F>G | E>G BB, CE Ac | B<G F>G E3 B/4c/4d/ |$ e>f d>e c/=B/c/d/ e>g | %10
 ag fe d/c/d/e/ fB/4c/4d/ | e>f d>e c/B/c/d/ f/e/d/c/ |$ c/B/A/G/ B/A/G/F/ EG EB/4c/4d/ | %13
 e>f d>e c/=B/c/d/ e>g | ag fe d>e fg | e<g A<c G>A Bc |$ e>c B<G E3 || %17
